X:1
T:Paddy on the Turnpike -- Reel
R:reel
B:Ryan's Mammoth Collection
N: 167
Z: Contributed by Ray Davies,  ray:davies99.freeserve.co.uk
M:C|
L:1/8
K:Gm
GF|\
DGG^F G2 GA | BGdG eGdG | D^FFE =F2 FG | AFcF dFcF |
DGG^F G2 GA | BAGA Bcd=e | f=efd cAFA | BGA^F G2::
d2|\
dgg^f g2ga | baga bage | dffg f2fg | agfg agfe |
dgg^f g2ga | bagf dcde | f=efd cAFA | BGA^F G2:|
